X: 3
T: After the Battle of Aughrim
P: piffero primo b0083
O: traditional Irish
%R: march, reel
F: http://ancients.sudburymuster.org/mus/ssp/pdf/bluehillF.pdf
Z: 2019 John Chambers <jc:trillian.mit.edu>
M: 4/4
L: 1/8
K: Ador
AG |\
E2A2 ABcd | e2d2 c2AA | {Bc}BBG2 {A}GFGA | BGAG E2D2 |\
E2A2 A2 (3Bcd | e2ed e2ag | e2d2 BedB |1 A4 A2 :|2 A6 ||
|: e2 |\
a2ag e2 (3efg | abag e2 (3efg | a2{b}af g2{a}ge | dedB G4 |\
abag e2 (3efg | abag e2d2 | B2e2 d2B2 | A6 :|


